img/rounds-popup-tablet.svg

<svg width="329" height="340" viewBox="0 0 329 340" fill="none" xmlns="http://www.w3.org/2000/svg">
<path d="M268.53 51.827C258.104 36.9301 261.658 16.3952 276.469 5.96111C291.279 -4.47299 311.738 -0.85515 322.164 14.0418C332.591 28.9387 329.037 49.4736 314.226 59.9077C299.415 70.3418 278.957 66.724 268.53 51.827Z" fill="#957163" fill-opacity="0.07"/>
<path d="M212.705 184.893C194.051 158.24 200.41 121.5 226.908 102.832C253.406 84.1641 290.01 90.6369 308.664 117.29C327.319 143.943 320.96 180.682 294.462 199.351C267.963 218.019 231.36 211.546 212.705 184.893Z" fill="#957163" fill-opacity="0.07"/>
<path d="M17.8497 297.584C-13.1557 253.284 -2.58685 192.219 41.4559 161.191C85.4986 130.163 146.337 140.921 177.343 185.221C208.348 229.52 197.779 290.585 153.736 321.613C109.694 352.642 48.8551 341.883 17.8497 297.584Z" fill="#957163" fill-opacity="0.07"/>
</svg>

<svg width="329" height="340" fill="none" xmlns="http://www.w3.org/2000/svg"><path d="M268.53 51.827c-10.426-14.897-6.872-35.432 7.939-45.866 14.81-10.434 35.269-6.816 45.695 8.08 10.427 14.898 6.873 35.433-7.938 45.867-14.811 10.434-35.269 6.816-45.696-8.081zm-55.825 133.066c-18.654-26.653-12.295-63.393 14.203-82.061 26.498-18.668 63.102-12.195 81.756 14.458 18.655 26.653 12.296 63.392-14.202 82.061-26.499 18.668-63.102 12.195-81.757-14.458zM17.85 297.584c-31.006-44.3-20.437-105.365 23.606-136.393 44.043-31.028 104.881-20.27 135.887 24.03 31.005 44.299 20.436 105.364-23.607 136.392-44.042 31.029-104.88 20.27-135.886-24.029z" fill="#957163" fill-opacity=".07"/></svg>
